X: 10
%%musicspace	0pt
T: Miss Thompson
I: Miss Thompson	R-107	D	reel
M: C|
R: reel
K: D
(3ABc| "D"d2df edcB| "A"A2AB AGFE| "D"DFAF "G"DGBG| "D"DFAF "G"GFED|
       "D"d2df edcB| "A"A2AB AGFE| "D"DFAd "A7"fedc| "D"d2dc d2:|
|:cd| "A"ecec Acec| "D"fdfd Adfd| "G"gege "D"fdfd| "E7"edcB "A"A2FA|
    "G"BGBG DGBd| "D"AFAF DFAd| FAde "A7"fedc| "D"d2dc d2:|
%%text Roaring Jelly  R-107.

